packages/core/src/svgs/fct.svg

<svg width="24" height="24" viewBox="0 0 24 24" fill="none" xmlns="http://www.w3.org/2000/svg">
<g clip-path="url(#clip0_31_10258)">
<path d="M0 0H24V24H0V0Z" fill="#16486F"/>
<path d="M6.30878 8.31749C6.28135 8.46835 6.28821 8.57807 6.3705 8.66035C6.26764 8.83821 6.18535 8.97535 6.10992 9.12621C6.18535 8.97535 6.26764 8.83821 6.3705 8.68735C6.60364 8.97535 7.3305 8.97535 8.31792 8.65992C8.4345 8.62564 8.4345 8.88664 8.4345 8.88664C8.4345 9.03707 8.40707 9.23592 7.15221 9.41421C6.80935 9.46907 6.30878 9.44164 6.0825 9.18107C6.0186 9.07598 5.98756 8.9542 5.99335 8.83135C5.99335 8.80392 5.99335 8.77649 6.02078 8.71478C6.03407 8.66421 6.05507 8.61578 6.0825 8.57121C6.10992 8.48207 6.16478 8.42721 6.21964 8.33807C6.19907 8.39292 6.13735 8.5095 6.0825 8.57121C6.11078 8.48421 6.1575 8.40492 6.21964 8.33807L6.30878 8.31749ZM6.48021 7.94721C6.52135 7.87864 6.56935 7.81692 6.63107 7.75521L6.54192 7.87178C6.53728 7.87628 6.53271 7.88085 6.52821 7.8855L6.63107 7.75521L6.54192 7.87178C6.52049 7.89321 6.49949 7.91635 6.48021 7.94035V7.94721ZM6.48021 7.94721L6.3705 8.10492C6.36579 8.10935 6.36121 8.11393 6.35678 8.11864C6.33364 8.15464 6.31049 8.19149 6.28821 8.22835L6.48021 7.94721ZM7.09735 7.24778L7.35792 7.02835C7.27648 7.13136 7.21803 7.2506 7.18649 7.37807C7.15221 7.46721 7.15221 7.55635 7.21392 7.61121C7.20703 7.61573 7.20018 7.6203 7.19335 7.62492C7.38535 7.84435 8.01621 7.77578 8.81164 7.43978C9.07103 7.33066 9.32299 7.20467 9.56592 7.06264C9.65507 7.02835 9.77164 7.17921 9.79907 7.19978C9.8265 7.23407 9.85392 7.32321 9.79907 7.37807C9.51107 7.55635 9.18878 7.72778 8.83907 7.84435C7.83792 8.26949 7.03564 8.33807 6.81621 8.06378L6.80935 8.0775C6.77507 7.98835 6.74764 7.9335 6.77507 7.81692C6.77507 7.78264 6.77507 7.75521 6.80935 7.72778C6.83464 7.69392 6.86207 7.66178 6.89164 7.63178C6.85049 7.67035 6.81149 7.71192 6.77507 7.75521C6.77507 7.72778 6.80935 7.67292 6.80935 7.63864C6.86421 7.52207 6.92592 7.43292 7.01507 7.32321L7.06992 7.27521C7.15907 7.15178 7.28935 7.04207 7.41278 6.91178L7.76249 6.62378C7.78778 6.59849 7.81521 6.57578 7.84478 6.55521L7.81735 6.58264C7.89964 6.51407 7.98192 6.45964 8.07107 6.39792H8.08478L8.13278 6.35635C8.5478 6.08467 8.98883 5.85497 9.44935 5.67064C9.52478 5.62307 9.60021 5.58878 9.67564 5.55449L9.55221 5.60249C9.47978 5.63421 9.40649 5.66378 9.33278 5.69164C9.21621 5.72592 9.21621 5.72592 8.98992 5.84249C8.86649 5.89735 8.8665 5.89735 8.66764 6.01392L8.37278 6.19221L8.13278 6.36364C10.0322 5.42421 9.90192 5.46535 9.76478 5.52021C8.93774 5.78439 8.17754 6.22414 7.53621 6.80935C7.47321 6.86935 7.41364 6.93364 7.35792 7.00092C7.26878 7.09007 7.17278 7.16549 7.09735 7.24778ZM5.45164 13.9871C5.45107 14.0115 5.45828 14.0355 5.47221 14.0556C5.49278 14.1332 5.53307 14.2039 5.58878 14.2614L5.43107 13.7814C5.43107 13.9734 5.48592 14.1379 5.58878 14.2614C5.52707 14.0899 5.47221 13.9185 5.43792 13.7128C5.96592 14.4396 7.94078 14.2614 10.4642 13.1921C13.6871 11.8206 16.6288 9.50335 17.0338 7.98835C17.1229 7.61121 17.0612 7.35064 16.8624 7.14492C16.9995 7.28892 17.1504 7.46721 17.2944 7.61121C17.4726 7.81692 17.5001 8.0775 17.4105 8.42721C16.9991 9.96278 14.0094 12.3144 10.6974 13.7059C7.81735 14.9608 5.65735 15.0156 5.44478 13.9871C5.39678 13.8225 5.34878 13.6031 5.29392 13.4526C5.32135 13.5349 5.35564 13.6241 5.41049 13.7132L5.43107 13.7745C5.43105 13.7768 5.43105 13.7791 5.43107 13.7814V13.7745L5.45164 13.9871ZM10.1556 5.38992L10.1968 5.37621C11.0676 5.14307 11.6231 5.25964 11.5065 5.75335C11.4791 5.92478 11.3625 6.09621 11.1842 6.2745C11.0471 6.33578 10.7248 6.2745 10.6631 6.21964C10.8071 6.04135 10.8962 5.89735 10.9236 5.78078C11.0128 5.39678 10.5945 5.30078 9.91564 5.47221L9.88821 5.48592L10.1556 5.38992ZM10.1076 5.41049L10.2242 5.37621C10.2015 5.38049 10.1784 5.38478 10.1556 5.38992L10.1076 5.41049ZM5.28707 12.9658V12.9864C5.20478 12.9041 5.17735 12.7944 5.1705 12.6641C5.16449 12.6048 5.16449 12.5451 5.1705 12.4858C5.17208 12.5406 5.17208 12.5955 5.1705 12.6504C5.16441 12.5934 5.16441 12.5359 5.1705 12.4789C5.15507 12.3289 5.14607 12.1776 5.14307 12.0264C5.14307 12.2046 5.20478 12.3144 5.25964 12.4378L5.27335 12.7121C5.25964 12.6161 5.25964 12.5201 5.25964 12.4378C7.20707 14.4949 15.9568 9.14678 16.0391 6.88435C16.0665 6.47292 15.8334 6.33578 15.7168 6.24707L15.9499 6.39064L16.2448 6.59635C16.4779 6.80207 16.5602 7.09007 16.4779 7.46721C16.0939 8.9205 13.2551 11.1559 10.1419 12.4652C7.67335 13.5208 5.77392 13.6652 5.28707 12.9658ZM5.27335 10.7514L5.31449 10.5731C5.25964 10.8062 5.28707 11.0119 5.40364 11.1216V11.1354C5.45849 11.2039 5.54078 11.2515 5.63678 11.2999C5.72592 11.4161 5.66421 11.7114 5.66421 11.7114C5.63678 11.7932 5.60935 11.9171 5.54764 11.8828C5.25964 11.7384 5.14307 11.5056 5.1705 11.1555C5.14264 11.3291 5.18464 11.5069 5.28707 11.6492V11.6355C5.20485 11.4999 5.17327 11.3396 5.19792 11.1829L5.21164 11.1144C5.2046 11.1366 5.2 11.1596 5.19792 11.1829L5.25964 10.7715L5.31449 10.5456V10.4908L5.27335 10.7514ZM5.69849 10.0382C5.64535 10.1539 5.60635 10.2761 5.58192 10.4016C5.49278 10.2851 5.46535 10.1411 5.49278 9.96278C5.55035 9.74338 5.62841 9.52987 5.72592 9.32507C5.69761 9.41086 5.68785 9.50169 5.69731 9.59154C5.70677 9.68138 5.73522 9.7682 5.78078 9.84621L5.76707 9.89421C6.1305 10.3742 7.45392 10.2508 9.1545 9.53078C11.3351 8.57078 13.3374 7.00092 13.5979 6.01392C13.6871 5.63678 13.5705 5.40364 13.2551 5.28707C13.3099 5.25964 13.3099 5.25964 13.4814 5.31449C13.5979 5.34878 13.6871 5.37621 13.7419 5.37621C14.1191 5.52021 14.2699 5.78764 14.1534 6.19221C13.8585 7.28935 11.6848 9.00278 9.29849 10.0245C7.41278 10.8062 5.95907 10.9502 5.58192 10.4016L5.69849 10.0382ZM10.1831 18.4022C9.8934 18.4232 9.60239 18.3883 9.32592 18.2994C9.1545 18.2106 8.91449 18.1279 8.77735 18.0392C9.12707 18.1832 9.60021 18.2244 10.1282 18.1695C13.1934 17.8678 18.5625 14.6522 18.8578 12.5475L18.8304 12.6366C18.7961 12.8081 18.7682 13.0138 18.7682 13.1578C18.7682 13.1921 18.7682 13.2195 18.7408 13.2469C18.3979 14.4945 15.9294 16.4415 13.2208 17.6004C12.2633 18.0457 11.2352 18.3196 10.1831 18.4095V18.4022ZM10.5259 17.2095C11.0067 17.0731 11.4804 16.9129 11.9454 16.7295C12.2608 16.6472 12.3774 16.8461 12.3774 16.8461C12.4048 16.8804 12.4048 16.9969 12.2334 17.0792C11.4996 17.3672 10.8276 17.5729 10.2448 17.6964L10.2242 17.7169L10.2379 17.6964C9.20935 17.9089 8.42764 17.8815 8.01621 17.6004C7.87907 17.4838 7.67335 17.3398 7.5225 17.2232C7.99564 17.6278 9.07221 17.6209 10.5259 17.2095ZM6.89164 16.5924C6.76821 16.4415 6.62421 16.2975 6.53507 16.1535C6.65164 16.2906 6.82992 16.4964 6.9465 16.6472C6.94498 16.6314 6.93798 16.6165 6.92672 16.6053C6.91546 16.594 6.90063 16.587 6.88478 16.5855L6.89164 16.5924ZM11.5065 5.1705C11.6779 5.1705 11.9179 5.14307 12.0894 5.14307C12.6996 5.14307 12.9876 5.37621 12.8711 5.84249C12.7271 6.39107 11.9454 7.17964 10.9236 7.87178C10.7179 7.96092 10.5122 7.70035 10.5808 7.58378C10.5808 7.55635 10.6082 7.55635 10.6082 7.55635C11.5065 6.93921 12.1716 6.27407 12.3225 5.78078C12.4391 5.31449 12.0619 5.11564 11.3899 5.1705H11.5065ZM14.9899 5.84249C15.3396 6.01392 15.4836 6.30878 15.3739 6.74035C15.0242 8.04321 12.4665 10.0519 9.67564 11.2446C9.1545 11.4778 8.63335 11.6492 8.16707 11.7932C7.89964 11.8206 7.87221 11.4778 7.98878 11.2999C8.02307 11.2451 8.05049 11.2451 8.07792 11.2104C8.51678 11.0942 8.97621 10.9228 9.46992 10.7171C12.1168 9.58564 14.5305 7.67292 14.8459 6.45278C14.9625 6.01392 14.7911 5.72592 14.4139 5.58192C14.5854 5.66421 14.8185 5.75335 14.9899 5.84249ZM18.0139 8.72207L18.1035 8.85921C18.1926 9.09192 18.1926 9.09192 18.1926 9.2085V9.23592C18.1031 9.20849 17.9252 8.85878 17.8978 8.71478C17.9091 8.56808 17.8676 8.42216 17.7808 8.30335L18.0139 8.71478V8.72207ZM18.6311 10.2576C18.6516 10.3948 18.6516 10.5731 18.5968 10.7788C18.2471 12.0538 16.0665 13.9459 13.4265 15.3036C13.1316 15.4271 12.9602 15.2214 13.0151 15.0156C13.0276 14.9785 13.0473 14.9442 13.0732 14.9147C13.0991 14.8853 13.1306 14.8613 13.1659 14.8442C15.8402 13.4526 18.0756 11.5326 18.4258 10.2234C18.4835 10.024 18.4835 9.81239 18.4258 9.61307C18.5076 9.84621 18.5968 10.0794 18.6311 10.2576ZM18.8304 11.4778V11.7041C18.8304 11.8206 18.8304 11.9098 18.8029 12.0538C18.5972 12.8424 17.6372 13.8568 16.3344 14.8442C16.1286 14.9882 16.0116 14.7894 16.0391 14.6385C16.0661 14.5494 16.1154 14.4692 16.1831 14.4054C17.5545 13.3909 18.5355 12.3486 18.7408 11.5326C18.7682 11.3886 18.8029 11.2451 18.7682 11.1006L18.8304 11.4778ZM6.79607 8.0775C6.76821 7.98835 6.74078 7.9335 6.76821 7.81692C6.74078 7.9335 6.76821 7.98835 6.80249 8.0775H6.79564H6.79607ZM6.06878 9.17464C6.00896 9.07064 5.98039 8.9516 5.9865 8.83178C5.9865 8.97535 5.98649 9.06449 6.07564 9.17464H6.06878ZM16.5328 11.4161C16.555 11.4791 16.561 11.5466 16.5502 11.6125C16.5394 11.6784 16.5122 11.7406 16.4711 11.7932C14.9356 13.115 13.1996 14.184 11.3282 14.9604C8.39335 16.1809 6.18535 16.2632 5.97964 15.2214C5.95907 15.1322 5.97964 15.1939 6.01392 15.1665C6.01392 15.1939 6.01392 15.3379 6.13049 15.5094C6.10307 15.4545 6.07564 15.4271 6.04135 15.3722C6.01392 15.3379 6.01392 15.3036 5.9865 15.2762C5.92478 15.1939 5.89735 15.0705 5.84249 14.9882C6.39107 15.7151 8.42764 15.5711 11.0402 14.4396C12.9055 13.6515 14.6398 12.5835 16.1831 11.2725C16.4162 11.1555 16.5054 11.3269 16.5328 11.4161ZM9.18878 16.7295C9.21621 16.7912 9.24364 16.9078 9.12707 16.9352C8.08478 17.1066 7.3305 17.0244 6.98078 16.6472C6.86421 16.4964 6.69278 16.2975 6.56935 16.1535C6.89164 16.5581 7.68021 16.6746 8.81164 16.4964C9.01735 16.4964 9.1545 16.6746 9.18878 16.7295ZM18.3431 14.6111C18.4258 14.4396 18.5145 14.1722 18.5762 14.0008C18.2265 15.1322 15.9911 16.8808 13.5499 17.9222C12.0414 18.5604 10.7865 18.7931 10.1214 18.5874C10.2928 18.6491 10.5534 18.7039 10.7591 18.7382C12.6174 19.0262 17.3214 16.7025 18.3431 14.6111ZM16.8345 16.7025C16.8345 16.7295 16.7659 16.8186 16.6562 16.9082C16.0185 17.4289 15.1476 17.9496 14.2425 18.3268C13.4882 18.6491 12.8231 18.8205 12.3225 18.8548H11.6025C12.1785 18.8822 13.0219 18.6765 14.0436 18.2719C15.0251 17.8613 15.9438 17.3145 16.7728 16.6476C16.8002 16.6476 16.8002 16.6134 16.8276 16.6134C16.8276 16.6134 16.8276 16.6476 16.8619 16.6476C16.8619 16.6476 16.8619 16.6746 16.8276 16.7021H16.8349L16.8345 16.7025ZM5.50007 9.84578C5.50007 9.81835 5.5275 9.7635 5.5275 9.72921L5.76064 9.11892C5.76064 9.20807 5.73321 9.26978 5.69892 9.35207C5.61664 9.49607 5.56178 9.67435 5.49321 9.84578H5.50007Z" fill="white"/>
</g>
<defs>
<clipPath id="clip0_31_10258">
<rect width="24" height="24" fill="white"/>
</clipPath>
</defs>
</svg>

<svg xmlns="http://www.w3.org/2000/svg" width="24" height="24" fill="none" viewBox="0 0 24 24"><g clip-path="url(#a)"><path fill="#16486F" d="M0 0h24v24H0z"/><path fill="#fff" d="M6.309 8.317c-.028.151-.02.261.061.343-.102.178-.185.315-.26.466.075-.15.158-.288.26-.439.234.288.96.288 1.948-.027.117-.034.117.227.117.227 0 .15-.028.349-1.283.527-.343.055-.843.028-1.07-.233a.6.6 0 0 1-.089-.35c0-.027 0-.055.028-.116a.5.5 0 0 1 .061-.144c.028-.089.083-.144.138-.233a1 1 0 0 1-.138.233.6.6 0 0 1 .138-.233zm.171-.37a1 1 0 0 1 .151-.192l-.09.117-.013.014.103-.13-.09.116a1 1 0 0 0-.06.068zm0 0-.11.158-.013.014-.069.11zm.617-.7.26-.219a.9.9 0 0 0-.17.35c-.035.09-.035.178.027.233l-.02.014c.191.22.822.15 1.618-.185q.389-.165.754-.377c.09-.035.206.116.233.137.027.034.055.123 0 .178-.288.178-.61.35-.96.466-1.001.425-1.803.494-2.023.22l-.007.014c-.034-.09-.061-.144-.034-.261 0-.034 0-.062.034-.09a1 1 0 0 1 .083-.095 1.4 1.4 0 0 0-.117.123c0-.027.034-.082.034-.116.055-.117.117-.206.206-.316l.055-.048c.09-.123.22-.233.343-.363l.35-.288a1 1 0 0 1 .082-.069l-.028.028c.083-.069.165-.123.254-.185h.014l.048-.042a7.5 7.5 0 0 1 1.316-.685c.076-.048.151-.082.227-.117l-.124.048a5 5 0 0 1-.22.09c-.116.034-.116.034-.342.15-.124.055-.123.055-.322.172l-.295.178-.24.172c1.9-.94 1.769-.899 1.632-.844a6 6 0 0 0-2.229 1.29 2 2 0 0 0-.178.19c-.09.09-.185.165-.26.248m-1.645 6.74q0 .037.02.069.031.118.117.205l-.158-.48c0 .192.055.357.158.48a3 3 0 0 1-.151-.548c.528.727 2.503.548 5.026-.52 3.223-1.372 6.165-3.69 6.57-5.205.089-.377.027-.637-.172-.843.138.144.288.322.432.466.179.206.206.467.116.816-.41 1.536-3.4 3.887-6.713 5.279-2.88 1.255-5.04 1.31-5.252.281-.048-.165-.096-.384-.151-.534.027.082.062.171.116.26l.021.062v.006-.007zm4.704-8.597.04-.014c.872-.233 1.427-.116 1.31.377-.027.172-.143.343-.322.521-.137.062-.46 0-.52-.054.143-.179.232-.323.26-.44.089-.383-.33-.48-1.008-.308l-.028.014zm-.048.02.116-.034-.068.014zm-4.82 7.556v.02c-.083-.082-.11-.192-.118-.322a1 1 0 0 1 0-.178q.003.083 0 .164a1 1 0 0 1 0-.171 6 6 0 0 1-.027-.453c0 .179.062.288.117.412l.013.274c-.013-.096-.013-.192-.013-.274 1.947 2.057 10.697-3.291 10.78-5.554.027-.411-.207-.548-.323-.637l.233.144.295.205c.233.206.315.494.233.871-.384 1.454-3.223 3.689-6.336 4.998-2.469 1.056-4.368 1.2-4.855.5m-.015-2.215.041-.178c-.054.233-.027.439.09.549v.013a.7.7 0 0 0 .233.165c.089.116.027.411.027.411-.027.082-.055.206-.116.172-.288-.145-.405-.377-.378-.727a.67.67 0 0 0 .117.493v-.013a.67.67 0 0 1-.09-.453l.015-.069a.3.3 0 0 0-.014.069l.062-.412.054-.225v-.055zm.425-.713a1.6 1.6 0 0 0-.116.364c-.09-.117-.117-.26-.09-.44q.087-.329.234-.637a.64.64 0 0 0 .055.521l-.014.048c.363.48 1.687.357 3.388-.363 2.18-.96 4.182-2.53 4.443-3.517.09-.377-.028-.61-.343-.727.055-.027.055-.027.226.027.117.035.206.062.26.062.378.144.529.412.412.816-.295 1.097-2.468 2.81-4.855 3.832-1.885.782-3.339.926-3.716.378zm4.485 8.364c-.29.021-.58-.014-.857-.103-.171-.088-.412-.171-.549-.26.35.144.823.185 1.351.13 3.065-.301 8.435-3.517 8.73-5.622l-.028.09a3 3 0 0 0-.062.52c0 .035 0 .063-.027.09-.343 1.248-2.812 3.195-5.52 4.353a9 9 0 0 1-3.038.81zm.343-1.193q.72-.204 1.42-.48c.315-.082.431.117.431.117.028.034.028.15-.144.233-.733.288-1.405.494-1.988.617l-.02.02.013-.02c-1.029.213-1.81.185-2.222-.096-.137-.116-.343-.26-.494-.377.474.405 1.55.398 3.004-.014m-3.634-.617c-.124-.15-.268-.294-.357-.438.117.137.295.342.412.493a.07.07 0 0 0-.062-.061zm4.615-11.421c.17 0 .41-.028.582-.028.61 0 .899.233.782.7-.144.548-.926 1.337-1.947 2.029-.206.089-.412-.172-.343-.288 0-.028.027-.028.027-.028.899-.617 1.564-1.282 1.714-1.775.117-.467-.26-.665-.932-.61zm3.483.671c.35.172.494.467.384.898-.35 1.303-2.908 3.312-5.698 4.505a13 13 0 0 1-1.509.548c-.267.028-.295-.315-.178-.493.034-.055.061-.055.089-.09.439-.116.898-.287 1.392-.493 2.647-1.131 5.06-3.044 5.376-4.264.117-.44-.055-.727-.432-.871.171.082.405.171.576.26m3.024 2.88.09.137c.089.233.089.233.089.35v.027c-.09-.028-.268-.377-.295-.521a.62.62 0 0 0-.117-.412l.233.412zm.617 1.536c.02.137.02.315-.034.52-.35 1.276-2.53 3.168-5.17 4.526-.295.123-.467-.083-.412-.288a.3.3 0 0 1 .15-.172c2.675-1.391 4.91-3.311 5.26-4.62.058-.2.058-.412 0-.61.083.232.172.465.206.644m.2 1.22v.226c0 .117 0 .206-.028.35-.206.788-1.166 1.803-2.469 2.79-.205.144-.322-.055-.295-.205a.53.53 0 0 1 .144-.234c1.372-1.014 2.352-2.056 2.558-2.872.027-.144.062-.288.027-.432zm-12.035-3.4c-.028-.09-.055-.144-.028-.261-.027.117 0 .171.034.26zM6.07 9.175a.62.62 0 0 1-.082-.343c0 .143 0 .232.089.343zm10.464 2.241a.4.4 0 0 1-.062.377 19.1 19.1 0 0 1-5.143 3.167c-2.935 1.22-5.143 1.303-5.348.261-.02-.089 0-.027.034-.055 0 .028 0 .172.116.343-.027-.055-.054-.082-.089-.137-.027-.034-.027-.068-.054-.096-.062-.082-.09-.206-.145-.288.55.727 2.586.583 5.198-.548a20 20 0 0 0 5.143-3.167c.233-.117.322.054.35.143M9.189 16.73c.027.061.055.178-.062.205-1.042.172-1.797.09-2.146-.288-.117-.15-.288-.35-.412-.493.323.404 1.111.52 2.243.342.205 0 .343.179.377.234m9.154-2.119c.083-.171.172-.439.233-.61-.35 1.131-2.585 2.88-5.026 3.921-1.509.638-2.764.871-3.429.665.172.062.432.117.638.151 1.858.288 6.562-2.035 7.584-4.127m-1.509 2.092c0 .027-.068.116-.178.205-.637.52-1.508 1.042-2.413 1.419-.755.322-1.42.493-1.92.528h-.72c.575.027 1.419-.178 2.44-.583.982-.41 1.9-.957 2.73-1.624.027 0 .027-.035.055-.035 0 0 0 .035.034.035 0 0 0 .027-.034.054zM5.5 9.846c0-.028.027-.082.027-.117l.234-.61c0 .09-.028.15-.062.233-.082.144-.137.322-.206.494z"/></g><defs><clipPath id="a"><path fill="#fff" d="M0 0h24v24H0z"/></clipPath></defs></svg>
